Sources/FrostedUI/Resources/Icons.xcassets/rotateLeft16.imageset/rotate-left-16.svg

<svg width="16" height="16" viewBox="0 0 16 16" fill="none" xmlns="http://www.w3.org/2000/svg" data-fui-icon="true">
  <path
    d="M8.05273 1.75C5.70238 1.75 4.15899 2.85175 3.25 4.14941V2.66309C3.2498 2.24905 2.91409 1.91309 2.5 1.91309C2.08591 1.91309 1.7502 2.24905 1.75 2.66309V6.20215C1.75012 6.95997 2.36087 7.58691 3.12891 7.58691H6.64258C7.05667 7.58691 7.39237 7.25096 7.39258 6.83691C7.39258 6.4227 7.05679 6.08691 6.64258 6.08691H3.91895C4.3922 4.75033 5.65359 3.25 8.05273 3.25C10.9464 3.25018 12.75 5.40711 12.75 8C12.75 10.5929 10.9464 12.7498 8.05273 12.75C6.1414 12.75 4.60064 11.7038 3.85645 10.3818C3.65324 10.021 3.19587 9.89356 2.83496 10.0967C2.47401 10.2999 2.34564 10.7572 2.54883 11.1182C3.54975 12.8961 5.58153 14.25 8.05273 14.25C11.8634 14.2498 14.25 11.33 14.25 8C14.25 4.67003 11.8634 1.75018 8.05273 1.75Z"
    fill="currentColor"
  />
</svg>

<svg xmlns="http://www.w3.org/2000/svg" width="16" height="16" fill="none" data-fui-icon="true" viewBox="0 0 16 16"><path fill="currentColor" d="M8.053 1.75c-2.35 0-3.894 1.102-4.803 2.4V2.662a.75.75 0 0 0-1.5 0v3.54c0 .757.61 1.384 1.379 1.384h3.514a.75.75 0 0 0 0-1.5H3.919C4.392 4.75 5.654 3.25 8.053 3.25c2.893 0 4.697 2.157 4.697 4.75s-1.804 4.75-4.697 4.75c-1.912 0-3.452-1.046-4.197-2.368a.75.75 0 0 0-1.307.736c1 1.778 3.033 3.132 5.504 3.132 3.81 0 6.197-2.92 6.197-6.25s-2.387-6.25-6.197-6.25"/></svg>
